src/icons/history.svg

<svg viewBox="0 0 18 18" fill="none" xmlns="http://www.w3.org/2000/svg">
  <path d="M0.948398 8.3756C0.6362 7.94724 0.781408 7.52614 1.34772 7.52614H2.37144C3.06118 4.10649 6.11781 1.5 9.71897 1.5C13.8284 1.5 17.219 4.89787 17.219 9C17.219 13.1094 13.8284 16.5 9.71897 16.5C7.3666 16.5 5.16669 15.3166 3.82352 13.5595C3.50406 13.1747 3.5694 12.7101 3.90338 12.4705C4.25188 12.2164 4.68025 12.3253 4.97066 12.6665C6.05972 14.1041 7.76592 15.0189 9.71897 15.0261C13.0588 15.0334 15.7451 12.3398 15.7451 9C15.7451 5.66021 13.0588 2.98112 9.71897 2.98112C6.88741 2.98112 4.52778 4.90513 3.87434 7.52614L4.9271 7.52614C5.48615 7.52614 5.6241 7.9545 5.32642 8.36834L3.5694 10.8151C3.32981 11.1491 2.95227 11.1563 2.70542 10.8151L0.948398 8.3756Z" fill="currentColor"/>
  <path d="M8.81868 5.42062C8.81868 5.07212 9.09457 4.78896 9.45033 4.78896C9.79883 4.78896 10.082 5.07212 10.082 5.42062V9.15247L11.7664 11.425C11.9987 11.7372 11.977 12.122 11.6793 12.3253C11.3671 12.5503 10.9895 12.4923 10.7354 12.151L9.00019 9.86399C8.87676 9.697 8.81868 9.53727 8.81868 9.37028V5.42062Z" fill="currentColor"/>
</svg>

<svg viewBox="0 0 18 18" fill="none" xmlns="http://www.w3.org/2000/svg"><path d="M.948 8.376c-.312-.429-.167-.85.4-.85H2.37C3.061 4.106 6.118 1.5 9.72 1.5c4.11 0 7.5 3.398 7.5 7.5 0 4.11-3.39 7.5-7.5 7.5-2.352 0-4.552-1.183-5.895-2.94-.32-.385-.255-.85.08-1.09.348-.254.776-.145 1.067.196a5.937 5.937 0 0 0 4.748 2.36A6.007 6.007 0 0 0 15.745 9 6.005 6.005 0 0 0 9.72 2.981a6.003 6.003 0 0 0-5.845 4.545h1.053c.56 0 .697.429.4.842l-1.758 2.447c-.24.334-.617.341-.864 0L.948 8.375z" fill="currentColor"/><path d="M8.819 5.42a.632.632 0 0 1 1.263 0v3.732l1.684 2.273c.233.312.211.697-.087.9-.312.225-.69.167-.944-.174L9 9.864a.815.815 0 0 1-.181-.494V5.42z" fill="currentColor"/></svg>
